**kern
*clefG2
*k[]
*M3/4
*^
4cc 4ee	4c 4g
=1	=1
*	*^
2b 2dd#X	2.g	2d-X\
4cc 4ee	.	4c\
*	*v	*v
=2||	=2||
4e 4g 4ee	4c
=3	=3
2f 2a-X 2dd#X	2B
4e 4g 4ee	4c
=4||	=4||
4cc 4gg	4e 4g
*	*^
2dd-X 2bb	2.g	2d#X\
4cc 4ccc	.	4e\
*	*v	*v
=5||	=5||
4g	4g
=6	=6
2d#X 2f#X 2a 2ddn	2.c
4e 4g 4cc	.
=7||	=7||
4g	4g
=8	=8
*	*^
2.ccn	2.c#X	1G 1f 1g
4b	4d	.
*	*v	*v
=9	=9
2.e 2.g 2.cc	2.c
=10||	=10||
4c 4e 4e	4A
!!linebreak:original
=11	=11
*	*^
(2g#X	2.c 2.e	2B-X\
4a)	.	4A\
*	*v	*v
=12||	=12||
4cc	4A
=13	=13
*	*^
2b	2.e	2B-X\
4cc	.	4A\
*	*v	*v
=14||	=14||
4cc 4ee	4A 4e
=15	=15
*	*^
(4gg	2d#X 2b	2A\
4ff)	.	.
*	*v	*v
4e 4cc 4ee	4e
=16||	=16||
4e	4e
=17	=17
*	*^
2.an	1d 1e	2.A#X\
4g#X	.	4B\
*	*v	*v
=18	=18
2.c 2.e 2.a	2.c
*v	*v
==
*-
!!!system-decoration: [(s1
